app/assets/icons/linkedin.svg

<?xml version="1.0" encoding="UTF-8" standalone="no"?>
<svg width="512px" height="512px" viewBox="0 0 512 512" version="1.1" xmlns="http://www.w3.org/2000/svg" xmlns:xlink="http://www.w3.org/1999/xlink" xmlns:sketch="http://www.bohemiancoding.com/sketch/ns">
    <!-- Generator: Sketch 3.3.3 (12072) - http://www.bohemiancoding.com/sketch -->
    <title>linkedin</title>
    <desc>Created with Sketch.</desc>
    <defs></defs>
    <g id="Page-1" stroke="none" stroke-width="1" fill="none" fill-rule="evenodd" sketch:type="MSPage">
        <g id="linkedin" sketch:type="MSArtboardGroup" fill="#000000">
            <g sketch:type="MSLayerGroup" transform="translate(26.000000, 26.000000)" id="Shape">
                <path d="M425.96,0 L33.948,0 C15.18,0 0,14.812 0,33.12 L0,426.788 C0,445.188 15.18,460 33.948,460 L425.96,460 C444.728,460 460,445.188 460,426.788 L460,33.12 C460,14.812 444.636,0 425.96,0 L425.96,0 Z M136.436,392.012 L68.172,392.012 L68.172,172.5 L136.436,172.5 L136.436,392.012 L136.436,392.012 Z M102.304,142.416 C80.408,142.416 62.744,124.66 62.744,102.856 C62.744,81.052 80.408,63.296 102.304,63.296 C124.108,63.296 141.864,81.052 141.864,102.856 C141.864,124.752 124.108,142.416 102.304,142.416 L102.304,142.416 Z M391.92,392.012 L323.748,392.012 L323.748,285.292 C323.748,259.808 323.288,227.056 288.328,227.056 C252.816,227.056 247.388,254.748 247.388,283.36 L247.388,392.012 L179.216,392.012 L179.216,172.5 L244.628,172.5 L244.628,202.492 L245.548,202.492 C254.656,185.196 276.92,167.072 310.132,167.072 C379.224,167.072 391.92,212.52 391.92,271.676 L391.92,392.012 L391.92,392.012 Z" sketch:type="MSShapeGroup"></path>
            </g>
        </g>
    </g>
</svg>

<?xml version="1.0" encoding="utf-8"?>
<!-- Generator: Adobe Illustrator 19.2.1, SVG Export Plug-In . SVG Version: 6.00 Build 0)  -->
<svg version="1.1" id="Calque_1" xmlns:sketch="http://www.bohemiancoding.com/sketch/ns"
	 xmlns="http://www.w3.org/2000/svg" xmlns:xlink="http://www.w3.org/1999/xlink" x="0px" y="0px" width="512px" height="512px"
	 viewBox="0 0 512 512" enable-background="new 0 0 512 512" xml:space="preserve">
<title>linkedin</title>
<desc>Created with Sketch.</desc>
<g id="Page-1" sketch:type="MSPage">
	<g id="linkedin" sketch:type="MSArtboardGroup">
		<g id="Shape" transform="translate(26.000000, 26.000000)" sketch:type="MSLayerGroup">
			<path sketch:type="MSShapeGroup" d="M426,0h-392C15.2,0,0,14.8,0,33.1v393.7C0,445.2,15.2,460,33.9,460h392
				c18.8,0,34-14.8,34-33.2V33.1C460,14.8,444.6,0,426,0L426,0z M136.4,392H68.2V172.5h68.3V392L136.4,392z M102.3,142.4
				c-21.9,0-39.6-17.8-39.6-39.6s17.7-39.6,39.6-39.6c21.8,0,39.6,17.8,39.6,39.6C141.9,124.8,124.1,142.4,102.3,142.4L102.3,142.4z
				 M391.9,392h-68.2V285.3c0-25.5-0.5-58.2-35.4-58.2c-35.5,0-40.9,27.7-40.9,56.3V392h-68.2V172.5h65.4v30h0.9
				c9.1-17.3,31.4-35.4,64.6-35.4c69.1,0,81.8,45.4,81.8,104.6V392L391.9,392z"/>
		</g>
	</g>
</g>
</svg>
